Sources/FrostedUI/Resources/Icons.xcassets/downloadDocument20.imageset/download-document-20.svg

<svg width="20" height="20" viewBox="0 0 20 20" fill="none" xmlns="http://www.w3.org/2000/svg" data-fui-icon="true">
  <path
    d="M9.92383 0.25C10.6367 0.25 11.3199 0.535788 11.8223 1.04199L16.9658 6.22559H16.9668C17.4689 6.73152 17.7499 7.41691 17.75 8.12988V17.0537C17.75 18.5371 16.5553 19.7498 15.0693 19.75H4.93066C3.44472 19.7498 2.25 18.5371 2.25 17.0537V2.94629C2.25 1.46293 3.44471 0.250201 4.93066 0.25H9.92383ZM4.93066 1.75C4.28399 1.7502 3.75 2.28046 3.75 2.94629V17.0537C3.75 17.7196 4.28398 18.2498 4.93066 18.25H15.0693C15.716 18.2498 16.25 17.7196 16.25 17.0537V8.12988C16.25 8.11125 16.2479 8.09274 16.2471 8.07422H12.6553C11.1691 8.07422 9.97461 6.8614 9.97461 5.37793V1.75195C9.95787 1.75123 9.94065 1.75 9.92383 1.75H4.93066ZM10.2266 8.75C10.6407 8.75015 10.9766 9.08588 10.9766 9.5V14.1602L12.0684 13.0684C12.3612 12.7759 12.8361 12.7759 13.1289 13.0684C13.4217 13.3611 13.4215 13.836 13.1289 14.1289L10.9551 16.3027C10.5157 16.7421 9.8036 16.742 9.36426 16.3027L7.36328 14.3027C7.07042 14.0099 7.07049 13.5351 7.36328 13.2422C7.65617 12.9493 8.13093 12.9493 8.42383 13.2422L9.47656 14.2949V9.5C9.47656 9.08579 9.81235 8.75 10.2266 8.75ZM11.4746 5.37793C11.4746 6.04389 12.0084 6.57422 12.6553 6.57422H15.1992L11.4746 2.82031V5.37793Z"
    fill="currentColor"
  />
</svg>

<svg xmlns="http://www.w3.org/2000/svg" width="20" height="20" fill="none" data-fui-icon="true" viewBox="0 0 20 20"><path fill="currentColor" d="M9.924.25c.713 0 1.396.286 1.898.792l5.144 5.184c.503.506.784 1.19.784 1.904v8.924a2.69 2.69 0 0 1-2.68 2.696H4.93a2.69 2.69 0 0 1-2.68-2.696V2.946A2.69 2.69 0 0 1 4.93.25zM4.93 1.75c-.647 0-1.181.53-1.181 1.196v14.108c0 .666.534 1.196 1.18 1.196h10.14c.646 0 1.18-.53 1.18-1.196V8.13q0-.028-.003-.056h-3.592a2.69 2.69 0 0 1-2.68-2.696V1.752l-.051-.002zm5.296 7a.75.75 0 0 1 .75.75v4.66l1.091-1.092a.75.75 0 0 1 1.06 1.06l-2.173 2.175c-.44.44-1.151.439-1.59 0l-2.002-2a.75.75 0 0 1 1.06-1.06l1.054 1.052V9.5a.75.75 0 0 1 .75-.75m1.248-3.372c0 .666.533 1.196 1.18 1.196H15.2L11.475 2.82z"/></svg>
